src/assets/svg/icons/fa/nuevos/classic/light/window-frame-open classic light.svg

<svg xmlns="http://www.w3.org/2000/svg" viewBox="0 0 512 512"><path d="M496 480H480v-160h-32v160H64v-160H32v160H16C7.164 480 0 487.2 0 496C0 504.8 7.164 512 16 512h480c8.836 0 16-7.164 16-16C512 487.2 504.8 480 496 480zM480 64c0-35.35-28.65-64-64-64H96C60.65 0 32 28.65 32 64v224h448V64zM240 256H64V64c0-17.67 14.33-32 32-32h144V256zM448 256h-176V32H416c17.67 0 32 14.33 32 32V256z"/></svg>

<svg xmlns="http://www.w3.org/2000/svg" viewBox="0 0 512 512"><!--! Font Awesome Pro 6.4.0 by @fontawesome - https://fontawesome.com License - https://fontawesome.com/license (Commercial License) Copyright 2023 Fonticons, Inc. --><path d="M272 32H416c17.7 0 32 14.3 32 32V256H272V32zM480 288V256 64c0-35.3-28.7-64-64-64H96C60.7 0 32 28.7 32 64V256v32H64 448h32zM240 256H64V64c0-17.7 14.3-32 32-32H240V256zM16 480c-8.8 0-16 7.2-16 16s7.2 16 16 16H48 464h32c8.8 0 16-7.2 16-16s-7.2-16-16-16H480V320H448V480H64V320H32V480H16z"/></svg>
